static/images/roadmap/june.svg

<svg viewBox="0 0 50 87" xmlns="http://www.w3.org/2000/svg">
<!-- Generator: sketchtool 46.2 (44496) - http://www.bohemiancoding.com/sketch -->
<title>095DA383-F5F0-46FA-904B-69C04F1EC51C</title>
<desc>Created with sketchtool.</desc>
<defs/>
<g id="cgPage-1" stroke="none" stroke-width="1" fill="none" fill-rule="evenodd">
    <g id="cgicns-roadmap" transform="translate(-187.000000, -193.000000)">
        <g id="cgico_06-copy" transform="translate(187.000000, 194.000000)">
            <path d="M36.8464789,11.6161983 C38.5373239,11.6161983 39.9084507,12.9832231 39.9084507,14.669876 L39.9084507,69.650124 C39.9084507,71.3367769 38.5380282,72.7045041 36.8464789,72.7045041 L12.6830986,72.7045041 C10.9915493,72.7045041 9.62183099,71.3374793 9.62183099,69.650124 L9.62183099,14.669876 C9.62183099,12.9832231 10.9915493,11.6161983 12.6830986,11.6161983 L36.8464789,11.6161983 L36.8464789,11.6161983 Z M36.8464789,9.50876033 L12.6830986,9.50876033 C9.83028169,9.50876033 7.50915493,11.8241322 7.50915493,14.669876 L7.50915493,69.650124 C7.50915493,72.4965702 9.83028169,74.8119421 12.6830986,74.8119421 L36.8464789,74.8119421 C39.7,74.8119421 42.0211268,72.4965702 42.0211268,69.650124 L42.0211268,14.669876 C42.0204225,11.8241322 39.6992958,9.50876033 36.8464789,9.50876033 L36.8464789,9.50876033 Z" id="cgShape" fill="#422F8B" fill-rule="nonzero"/>
            <path d="M0.428169014,40.716405 L0.428169014,9.49049587 C0.428169014,5.42524793 3.73098592,2.13061983 7.80774648,2.13061983 L32.5401408,2.13061983" id="cgShape" stroke="#768FFF" stroke-width="0.7" stroke-linecap="round" stroke-linejoin="round" stroke-dasharray="3.5,3.5"/>
            <path d="M49.4528169,44.3060744 L49.4528169,75.531281 C49.4528169,79.5958264 46.15,82.891157 42.0732394,82.891157 L17.3408451,82.891157" id="cgShape" stroke="#768FFF" stroke-width="0.7" stroke-linecap="round" stroke-linejoin="round" stroke-dasharray="3.5,3.5"/>
            <path d="M24.8415493,66.0204132 C26.3640845,66.0204132 27.5978873,67.2504545 27.5978873,68.7678099 C27.5978873,70.2865702 26.3640845,71.517314 24.8415493,71.517314 C23.3190141,71.517314 22.0859155,70.2865702 22.0859155,68.7678099 C22.0859155,67.2504545 23.3190141,66.0204132 24.8415493,66.0204132 Z" id="cgShape" stroke="#422F8B" stroke-width="0.7"/>
            <path d="M34.0028169,0.273966942 C34.9542254,0.273966942 35.7253521,1.04247934 35.7253521,1.99152893 C35.7253521,2.94057851 34.9535211,3.70909091 34.0028169,3.70909091 C33.0521127,3.70909091 32.2816901,2.93987603 32.2816901,1.99152893 C32.2816901,1.04318182 33.0521127,0.273966942 34.0028169,0.273966942 Z" id="cgShape" stroke="#422F8B" stroke-width="1.4" fill="#FFFFFF"/>
            <path d="M15.6788732,81.1082645 C16.6302817,81.1082645 17.4014085,81.8774793 17.4014085,82.825124 C17.4014085,83.774876 16.6295775,84.542686 15.6788732,84.542686 C14.728169,84.542686 13.9577465,83.7741736 13.9577465,82.825124 C13.9577465,81.8774793 14.728169,81.1082645 15.6788732,81.1082645 Z" id="cgShape" stroke="#422F8B" stroke-width="1.4" fill="#FFFFFF"/>
            <path d="M18.3267606,13.8521901 L31.3549296,13.8521901 C31.8683099,13.8521901 32.2852113,14.2680579 32.2852113,14.7801653 C32.2852113,15.2922727 31.8683099,15.7081405 31.3549296,15.7081405 L18.3267606,15.7081405 C17.8133803,15.7081405 17.3957746,15.2922727 17.3957746,14.7801653 C17.3957746,14.2680579 17.8133803,13.8521901 18.3267606,13.8521901 Z" id="cgShape" stroke="#422F8B" stroke-width="0.7"/>
            <g id="cgGroup" transform="translate(10.563380, 17.561983)">
                <rect id="cgRectangle-path" fill="#768FFF" x="1.17464789" y="1.07128099" width="26.0584507" height="45.6597521"/>
                <path d="M26.5288732,1.77376033 L26.5288732,46.0285537 L1.87957746,46.0285537 L1.87957746,1.77376033 L26.5288732,1.77376033 L26.5288732,1.77376033 Z M27.9373239,0.368801653 L0.470422535,0.368801653 L0.470422535,47.4335124 L27.9373239,47.4335124 L27.9373239,0.368801653 L27.9373239,0.368801653 Z" id="cgShape" fill="#422F8B" fill-rule="nonzero"/>
            </g>
            <g id="cgGroup" transform="translate(14.788732, 33.016529)" fill-rule="nonzero">
                <path d="M7.03732394,17.5121074 C2.9471831,17.5121074 0.505633803,15.0056612 0.505633803,10.8069421 L0.505633803,0.71231405 L2.58802817,0.71231405 L2.58802817,10.7830579 C2.58802817,13.8739669 4.16830986,15.5760744 7.03732394,15.5760744 C9.90704225,15.5760744 11.4873239,13.8739669 11.4873239,10.7830579 L11.4873239,0.71231405 L13.5697183,0.71231405 L13.5697183,10.8069421 C13.5704225,15.0681818 11.1894366,17.5121074 7.03732394,17.5121074 Z" id="cgShape" fill="#FFFFFF"/>
                <path d="M13.2183099,1.06355372 L13.2183099,10.8069421 C13.2183099,14.7183471 11.1260563,17.1608678 7.03802817,17.1608678 C2.97323944,17.1608678 0.858450704,14.6951653 0.858450704,10.8069421 L0.858450704,1.06355372 L2.23661972,1.06355372 L2.23661972,10.7830579 C2.23661972,13.9835537 3.92394366,15.927314 7.03802817,15.927314 C10.1760563,15.927314 11.8401408,13.9828512 11.8401408,10.7830579 L11.8401408,1.06355372 L13.2183099,1.06355372 L13.2183099,1.06355372 Z M13.9225352,0.36107438 L13.2183099,0.36107438 L11.8401408,0.36107438 L11.1352113,0.36107438 L11.1352113,1.06355372 L11.1352113,10.7830579 C11.1352113,12.8097107 10.4239437,15.2248347 7.03802817,15.2248347 C4.39647887,15.2248347 2.94084507,13.6477686 2.94084507,10.7830579 L2.94084507,1.06355372 L2.94084507,0.36107438 L2.23661972,0.36107438 L0.858450704,0.36107438 L0.154225352,0.36107438 L0.154225352,1.06355372 L0.154225352,10.8069421 C0.154225352,15.2255372 2.72746479,17.8633471 7.03802817,17.8633471 C11.3492958,17.8633471 13.9225352,15.2255372 13.9225352,10.8069421 L13.9225352,1.06355372 L13.9225352,0.36107438 L13.9225352,0.36107438 Z" id="cgShape" fill="#422F8B"/>
            </g>
            <g id="cgGroup" transform="translate(30.281690, 33.016529)" fill-rule="nonzero">
                <rect id="cgRectangle-path" fill="#FFFFFF" x="0.843661972" y="0.71231405" width="2.0584507" height="16.5145868"/>
                <path d="M2.55,1.06355372 L2.55,16.8756612 L1.19577465,16.8756612 L1.19577465,1.06355372 L2.55,1.06355372 L2.55,1.06355372 Z M3.25422535,0.36107438 L2.55,0.36107438 L1.19577465,0.36107438 L0.491549296,0.36107438 L0.491549296,1.06355372 L0.491549296,16.8756612 L0.491549296,17.5781405 L1.19577465,17.5781405 L2.55,17.5781405 L3.25422535,17.5781405 L3.25422535,16.8756612 L3.25422535,1.06355372 L3.25422535,0.36107438 L3.25422535,0.36107438 Z" id="cgShape" fill="#422F8B"/>
            </g>
        </g>
    </g>
</g>
</svg>

<?xml version="1.0" encoding="UTF-8" standalone="no"?>
<svg
   xmlns:dc="http://purl.org/dc/elements/1.1/"
   xmlns:cc="http://creativecommons.org/ns#"
   xmlns:rdf="http://www.w3.org/1999/02/22-rdf-syntax-ns#"
   xmlns:svg="http://www.w3.org/2000/svg"
   xmlns="http://www.w3.org/2000/svg"
   xmlns:sodipodi="http://sodipodi.sourceforge.net/DTD/sodipodi-0.dtd"
   xmlns:inkscape="http://www.inkscape.org/namespaces/inkscape"
   viewBox="0 0 50 87"
   id="svg2"
   version="1.1"
   inkscape:version="0.91 r13725"
   sodipodi:docname="june.svg">
  <metadata
     id="metadata44">
    <rdf:RDF>
      <cc:Work
         rdf:about="">
        <dc:format>image/svg+xml</dc:format>
        <dc:type
           rdf:resource="http://purl.org/dc/dcmitype/StillImage" />
      </cc:Work>
    </rdf:RDF>
  </metadata>
  <sodipodi:namedview
     pagecolor="#ffffff"
     bordercolor="#666666"
     borderopacity="1"
     objecttolerance="10"
     gridtolerance="10"
     guidetolerance="10"
     inkscape:pageopacity="0"
     inkscape:pageshadow="2"
     inkscape:window-width="1920"
     inkscape:window-height="1004"
     id="namedview42"
     showgrid="false"
     inkscape:zoom="2.7126437"
     inkscape:cx="25"
     inkscape:cy="43.5"
     inkscape:window-x="0"
     inkscape:window-y="24"
     inkscape:window-maximized="1"
     inkscape:current-layer="svg2" />
  <!-- Generator: sketchtool 46.2 (44496) - http://www.bohemiancoding.com/sketch -->
  <title
     id="title4">095DA383-F5F0-46FA-904B-69C04F1EC51C</title>
  <desc
     id="desc6">Created with sketchtool.</desc>
  <defs
     id="defs8" />
  <g
     id="cgPage-1"
     transform="matrix(0.75902444,0,0,0.75902444,6.0100493,10.460346)"
     style="fill:none;fill-rule:evenodd;stroke:none;stroke-width:1">
    <g
       id="cgicns-roadmap"
       transform="translate(-187,-193)">
      <g
         id="cgico_06-copy"
         transform="translate(187,194)">
        <path
           d="m 36.846479,11.616198 c 1.690845,0 3.061972,1.367025 3.061972,3.053678 l 0,54.980248 c 0,1.686653 -1.370423,3.05438 -3.061972,3.05438 l -24.16338,0 c -1.69155,0 -3.061268,-1.367025 -3.061268,-3.05438 l 0,-54.980248 c 0,-1.686653 1.369718,-3.053678 3.061268,-3.053678 l 24.16338,0 0,0 z m 0,-2.1074377 -24.16338,0 c -2.8528173,0 -5.1739441,2.3153717 -5.1739441,5.1611157 l 0,54.980248 c 0,2.846446 2.3211268,5.161818 5.1739441,5.161818 l 24.16338,0 c 2.853521,0 5.174648,-2.315372 5.174648,-5.161818 l 0,-54.980248 C 42.020423,11.824132 39.699296,9.5087603 36.846479,9.5087603 l 0,0 z"
           id="cgShape"
           inkscape:connector-curvature="0"
           style="fill:#422f8b;fill-rule:nonzero" />
        <path
           d="m 0.42816901,40.716405 0,-31.2259091 c 0,-4.065248 3.30281689,-7.3598761 7.37957749,-7.3598761 l 24.7323945,0"
           id="path14"
           inkscape:connector-curvature="0"
           style="stroke:#768fff;stroke-width:0.69999999;stroke-linecap:round;stroke-linejoin:round;stroke-dasharray:3.5, 3.5" />
        <path
           d="m 49.452817,44.306074 0,31.225207 c 0,4.064545 -3.302817,7.359876 -7.379578,7.359876 l -24.732394,0"
           id="path16"
           inkscape:connector-curvature="0"
           style="stroke:#768fff;stroke-width:0.69999999;stroke-linecap:round;stroke-linejoin:round;stroke-dasharray:3.5, 3.5" />
        <path
           d="m 24.841549,66.020413 c 1.522535,0 2.756338,1.230042 2.756338,2.747397 0,1.51876 -1.233803,2.749504 -2.756338,2.749504 -1.522535,0 -2.755634,-1.230744 -2.755634,-2.749504 0,-1.517355 1.233099,-2.747397 2.755634,-2.747397 z"
           id="path18"
           inkscape:connector-curvature="0"
           style="stroke:#422f8b;stroke-width:0.69999999" />
        <path
           d="m 34.002817,0.27396694 c 0.951408,0 1.722535,0.76851236 1.722535,1.71756196 0,0.9490496 -0.771831,1.717562 -1.722535,1.717562 -0.950704,0 -1.721127,-0.7692149 -1.721127,-1.717562 0,-0.9483471 0.770423,-1.71756196 1.721127,-1.71756196 z"
           id="path20"
           inkscape:connector-curvature="0"
           style="fill:#ffffff;stroke:#422f8b;stroke-width:1.39999998" />
        <path
           d="m 15.678873,81.108265 c 0.951409,0 1.722535,0.769214 1.722535,1.716859 0,0.949752 -0.771831,1.717562 -1.722535,1.717562 -0.950704,0 -1.721126,-0.768512 -1.721126,-1.717562 0,-0.947645 0.770422,-1.716859 1.721126,-1.716859 z"
           id="path22"
           inkscape:connector-curvature="0"
           style="fill:#ffffff;stroke:#422f8b;stroke-width:1.39999998" />
        <path
           d="m 18.326761,13.85219 13.028169,0 c 0.51338,0 0.930281,0.415868 0.930281,0.927975 0,0.512108 -0.416901,0.927976 -0.930281,0.927976 l -13.028169,0 c -0.513381,0 -0.930986,-0.415868 -0.930986,-0.927976 0,-0.512107 0.417605,-0.927975 0.930986,-0.927975 z"
           id="path24"
           inkscape:connector-curvature="0"
           style="stroke:#422f8b;stroke-width:0.69999999" />
        <g
           id="cgGroup"
           transform="translate(10.56338,17.561983)">
          <rect
             id="cgRectangle-path"
             x="1.1746479"
             y="1.071281"
             width="26.058451"
             height="45.659752"
             style="fill:#768fff" />
          <path
             d="m 26.528873,1.7737603 0,44.2547937 -24.6492955,0 0,-44.2547937 24.6492955,0 0,0 z m 1.408451,-1.40495865 -27.46690146,0 0,47.06471035 27.46690146,0 0,-47.06471035 0,0 z"
             id="path28"
             inkscape:connector-curvature="0"
             style="fill:#422f8b;fill-rule:nonzero" />
        </g>
        <g
           id="g30"
           transform="translate(14.788732,33.016529)"
           style="fill-rule:nonzero">
          <path
             d="m 7.0373239,17.512107 c -4.0901408,0 -6.5316901,-2.506446 -6.5316901,-6.705165 l 0,-10.09462795 2.0823944,0 0,10.07074395 c 0,3.090909 1.5802817,4.793016 4.4492957,4.793016 2.8697184,0 4.4500001,-1.702107 4.4500001,-4.793016 l 0,-10.07074395 2.082394,0 0,10.09462795 c 7.04e-4,4.26124 -2.380281,6.705165 -6.5323941,6.705165 z"
             id="path32"
             inkscape:connector-curvature="0"
             style="fill:#ffffff" />
          <path
             d="m 13.21831,1.0635537 0,9.7433883 c 0,3.911405 -2.092254,6.353926 -6.1802818,6.353926 -4.0647888,0 -6.1795775,-2.465703 -6.1795775,-6.353926 l 0,-9.7433883 1.378169,0 0,9.7195043 c 0,3.200496 1.687324,5.144256 4.8014085,5.144256 3.1380278,0 4.8021128,-1.944463 4.8021128,-5.144256 l 0,-9.7195043 1.378169,0 0,0 z m 0.704225,-0.70247932 -0.704225,0 -1.378169,0 -0.70493,0 0,0.70247932 0,9.7195043 c 0,2.026653 -0.711267,4.441777 -4.0971828,4.441777 -2.6415493,0 -4.0971831,-1.577066 -4.0971831,-4.441777 l 0,-9.7195043 0,-0.70247932 -0.7042254,0 -1.378169,0 -0.70422535,0 0,0.70247932 0,9.7433883 c 0,4.418595 2.57323945,7.056405 6.88380285,7.056405 4.3112678,0 6.8845068,-2.63781 6.8845068,-7.056405 l 0,-9.7433883 0,-0.70247932 0,0 z"
             id="path34"
             inkscape:connector-curvature="0"
             style="fill:#422f8b" />
        </g>
        <g
           id="g36"
           transform="translate(30.28169,33.016529)"
           style="fill-rule:nonzero">
          <rect
             id="rect38"
             x="0.84366196"
             y="0.71231407"
             width="2.0584507"
             height="16.514587"
             style="fill:#ffffff" />
          <path
             d="m 2.55,1.0635537 0,15.8121073 -1.3542254,0 0,-15.8121073 1.3542254,0 0,0 z m 0.7042254,-0.70247932 -0.7042254,0 -1.3542254,0 -0.7042253,0 0,0.70247932 0,15.8121073 0,0.702479 0.7042253,0 1.3542254,0 0.7042254,0 0,-0.702479 0,-15.8121073 0,-0.70247932 0,0 z"
             id="path40"
             inkscape:connector-curvature="0"
             style="fill:#422f8b" />
        </g>
      </g>
    </g>
  </g>
</svg>
